X: 28122
T: Mrs Cole
R: reel
M: 4/4
K: Aminor
c2 (3cBA e4|f2ed e2a2|g2e2 f2e2|d2cd e4|cdc2 cBe2|cdc2 cBe2|
A3A ^GABA|G2E2 E4|E2A2 A^GAB|c2G2 c4|d4 dcde|f2gf e4|
a2ed c2e2|dcBA G2E2|edce dc(3Bcd|c2B2 A4|EDCB, A,B,CD|E2 E,2 E,4:|
|:c2Bc A4|AGEG A3B|cBAG Bcd2|dcBA cde2|e2a2 a2g2|gedc d4|
dcde dede|a2A2 A4|cBcd cdcd|g2G2 G4|e2dc B2B2|dcBA G2E2|
edce dc(3Bcd|c2B2 A4|1 EDCB, A,B,CD|E2 E,2 E,4:|2 EDCE DCB,D|C2B,2 A,4||

